X: 24349
T: Louis Quinn's Fancy
R: barndance
M: 4/4
K: Gmajor
|:G2GA B<GG2|B<GBd g2g2|e<cce d<BBd|1 (3cBA (3FGA G2D2:|2 (3cBA (3FGA G4||
|:g2b2e4|gfb2e4|f2a2 d4|1 gfgb a4:|2 (3gfg ba g4||
|:G2G2G2G2|B<dcd ed^cd|1 A2A2A2A2|F<Ad^c d2BA:|2 A2A2A2A2|F<DEF G4||

